src/assets/images/integration-icon-4.svg

<svg width="56" height="56" viewBox="0 0 56 56" fill="none" xmlns="http://www.w3.org/2000/svg">
<path d="M10.6379 8.40038C9.91268 7.67511 9.91268 6.4883 10.6379 5.76303L12.2793 4.12172L26.6324 18.4749C27.3577 19.2002 28.5445 19.2002 29.2698 18.4749L43.6722 4.07275L45.3625 5.76303C46.0877 6.4883 46.0877 7.67511 45.3625 8.40038L29.4208 24.342C28.6487 24.9141 27.6139 24.9795 26.7827 24.5352C26.7486 24.5056 26.7141 24.4763 26.6817 24.4438L10.6379 8.40038Z" fill="url(#paint0_linear_1_4096)"/>
<path opacity="0.6" d="M26.7825 24.5353C26.7483 24.5058 26.7139 24.4764 26.6814 24.4439L10.6377 8.40024C9.91243 7.67497 9.91243 6.48817 10.6377 5.7629L12.279 4.12158L26.6322 18.4748C27.0329 18.8755 27.5744 19.0536 28.1014 19.0117V24.8206C27.6496 24.8485 27.1914 24.754 26.7825 24.5353Z" fill="url(#paint1_linear_1_4096)"/>
<path d="M45.3622 47.5979C46.0875 48.3232 46.0875 49.51 45.3622 50.2353L43.7209 51.8766L29.3677 37.5234C28.6424 36.7981 27.4556 36.7981 26.7304 37.5234L12.3282 51.9256L10.6379 50.2353C9.91268 49.51 9.91268 48.3232 10.6379 47.5979L26.5796 31.6563C27.3517 31.0842 28.3865 31.0188 29.2177 31.4631C29.2518 31.4927 29.2863 31.522 29.3188 31.5545L45.3622 47.5979Z" fill="url(#paint2_linear_1_4096)"/>
<path opacity="0.6" d="M29.2178 31.4634C29.252 31.493 29.2864 31.5223 29.3189 31.5548L45.3626 47.5983C46.0879 48.3235 46.0879 49.5103 45.3626 50.2356L43.7213 51.8769L29.3681 37.5237C28.9674 37.123 28.4259 36.9449 27.8989 36.9871V31.1781C28.3508 31.1502 28.8089 31.2448 29.2178 31.4634Z" fill="url(#paint3_linear_1_4096)"/>
<path d="M1.86481 26.4186C0.839198 26.4186 0 25.5794 0 24.5538V22.2325H20.2986C21.3242 22.2325 22.1634 21.3933 22.1634 20.3677V0H24.554C25.5796 0 26.4188 0.8392 26.4188 1.86481V24.4098C26.2775 25.3602 25.592 26.1383 24.69 26.4118C24.6449 26.4152 24.5998 26.4188 24.554 26.4188H1.86481V26.4186Z" fill="url(#paint4_linear_1_4096)"/>
<path opacity="0.6" d="M24.69 26.4116C24.6449 26.415 24.5998 26.4186 24.554 26.4186H1.86505C0.839446 26.4186 0.000244141 25.5794 0.000244141 24.5538V22.2326H20.2986C20.8653 22.2326 21.3744 21.9756 21.7171 21.5732L25.8247 25.6808C25.5243 26.0199 25.1336 26.2771 24.69 26.4116Z" fill="url(#paint5_linear_1_4096)"/>
<path d="M54.1353 29.5811C55.1609 29.5811 56.0001 30.4203 56.0001 31.4459V33.7671H35.7015C34.6759 33.7671 33.8367 34.6063 33.8367 35.6319V55.9999H31.4461C30.4205 55.9999 29.5813 55.1607 29.5813 54.135V31.5901C29.7226 30.6396 30.4081 29.8615 31.3101 29.5881C31.3552 29.5847 31.4003 29.5811 31.4461 29.5811H54.1353Z" fill="url(#paint6_linear_1_4096)"/>
<path opacity="0.6" d="M31.3105 29.5881C31.3556 29.5847 31.4006 29.5811 31.4465 29.5811H54.1354C55.161 29.5811 56.0002 30.4203 56.0002 31.4459V33.7671H35.7018C35.1351 33.7671 34.6261 34.0241 34.2833 34.4265L30.1758 30.3189C30.4759 29.9798 30.8669 29.7226 31.3105 29.5881Z" fill="url(#paint7_linear_1_4096)"/>
<path d="M8.4016 45.362C7.67633 46.0872 6.48952 46.0872 5.76425 45.362L4.12294 43.7207L18.4761 29.3675C19.2014 28.6422 19.2014 27.4554 18.4761 26.7301L4.07373 12.328L5.76401 10.6377C6.48928 9.91243 7.67608 9.91243 8.40135 10.6377L24.343 26.5794C24.9151 27.3514 24.9805 28.3862 24.5362 29.2174C24.5066 29.2516 24.4773 29.286 24.4448 29.3185L8.4016 45.362Z" fill="url(#paint8_linear_1_4096)"/>
<path opacity="0.6" d="M24.5363 29.2174C24.5067 29.2515 24.4774 29.286 24.4449 29.3184L8.40146 45.3621C7.67619 46.0874 6.48938 46.0874 5.76411 45.3621L4.1228 43.7208L18.476 29.3676C18.8767 28.967 19.0548 28.4254 19.0127 27.8984H24.8216C24.8495 28.3503 24.755 28.8084 24.5363 29.2174Z" fill="url(#paint9_linear_1_4096)"/>
<path d="M47.5984 10.6377C48.3237 9.91243 49.5105 9.91243 50.2358 10.6377L51.8771 12.279L37.5239 26.6322C36.7986 27.3575 36.7986 28.5443 37.5239 29.2695L51.926 43.6717L50.2358 45.362C49.5105 46.0872 48.3237 46.0872 47.5984 45.362L31.6568 29.4203C31.0847 28.6483 31.0192 27.6134 31.4636 26.7822C31.4931 26.7481 31.5225 26.7136 31.555 26.6812L47.5984 10.6377Z" fill="url(#paint10_linear_1_4096)"/>
<path opacity="0.6" d="M31.4637 26.7825C31.4932 26.7483 31.5226 26.7139 31.555 26.6814L47.5987 10.6377C48.324 9.91243 49.5108 9.91243 50.2361 10.6377L51.8774 12.279L37.5242 26.6322C37.1235 27.0329 36.9454 27.5747 36.9873 28.1014H31.1783C31.1505 27.6496 31.245 27.1914 31.4637 26.7825Z" fill="url(#paint11_linear_1_4096)"/>
<path d="M26.4186 54.1358C26.4186 55.1614 25.5794 56.0006 24.5538 56.0006H22.2325V35.7022C22.2325 34.6766 21.3933 33.8374 20.3677 33.8374H0V31.4468C0 30.4212 0.839198 29.582 1.86481 29.582H24.4098C25.3602 29.7234 26.1383 30.4089 26.4118 31.3109C26.4152 31.3559 26.4188 31.401 26.4188 31.4468V54.1358H26.4186Z" fill="url(#paint12_linear_1_4096)"/>
<path opacity="0.6" d="M26.4119 31.3107C26.4152 31.3558 26.4189 31.4009 26.4189 31.4467V54.1356C26.4189 55.1613 25.5797 56.0005 24.5541 56.0005H22.2328V35.7023C22.2328 35.1356 21.9759 34.6265 21.5735 34.2838L25.681 30.1763C26.0201 30.4764 26.2773 30.8671 26.4119 31.3107Z" fill="url(#paint13_linear_1_4096)"/>
<path d="M29.5813 1.86481C29.5813 0.8392 30.4205 0 31.4461 0H33.7674V20.2986C33.7674 21.3242 34.6066 22.1634 35.6322 22.1634H56.0001V24.554C56.0001 25.5796 55.1609 26.4188 54.1353 26.4188H31.5903C30.6399 26.2775 29.8618 25.592 29.5883 24.69C29.5849 24.6449 29.5813 24.5998 29.5813 24.554V1.86481Z" fill="url(#paint14_linear_1_4096)"/>
<path opacity="0.6" d="M29.5886 24.6897C29.5852 24.6447 29.5815 24.5996 29.5815 24.5537V1.86481C29.5815 0.8392 30.4207 0 31.4463 0H33.7676V20.2986C33.7676 20.8653 34.0245 21.3744 34.4269 21.7171L30.3194 25.8247C29.9803 25.5241 29.7231 25.1333 29.5886 24.6897Z" fill="url(#paint15_linear_1_4096)"/>
<defs>
<linearGradient id="paint0_linear_1_4096" x1="28.0001" y1="24.826" x2="28.0001" y2="4.07271" gradientUnits="userSpaceOnUse">
<stop stop-color="#D5003B"/>
<stop offset="1" stop-color="#3F67BE"/>
</linearGradient>
<linearGradient id="paint1_linear_1_4096" x1="28.2028" y1="14.4737" x2="8.36447" y2="14.4737" gradientUnits="userSpaceOnUse">
<stop stop-color="#5E3FBE"/>
<stop offset="1" stop-color="#0067D5" stop-opacity="0"/>
</linearGradient>
<linearGradient id="paint2_linear_1_4096" x1="28.0001" y1="31.1722" x2="28.0001" y2="51.9256" gradientUnits="userSpaceOnUse">
<stop stop-color="#D5003B"/>
<stop offset="1" stop-color="#3F67BE"/>
</linearGradient>
<linearGradient id="paint3_linear_1_4096" x1="27.7976" y1="41.525" x2="47.6359" y2="41.525" gradientUnits="userSpaceOnUse">
<stop stop-color="#5E3FBE"/>
<stop offset="1" stop-color="#0067D5" stop-opacity="0"/>
</linearGradient>
<linearGradient id="paint4_linear_1_4096" x1="25.7564" y1="25.7564" x2="11.0816" y2="11.0816" gradientUnits="userSpaceOnUse">
<stop stop-color="#D76200"/>
<stop offset="1" stop-color="#8340C0"/>
</linearGradient>
<linearGradient id="paint5_linear_1_4096" x1="18.5794" y1="18.2927" x2="4.55166" y2="32.3204" gradientUnits="userSpaceOnUse">
<stop stop-color="#C0408D"/>
<stop offset="1" stop-color="#5D00D7" stop-opacity="0"/>
</linearGradient>
<linearGradient id="paint6_linear_1_4096" x1="30.2437" y1="30.2434" x2="44.9185" y2="44.9182" gradientUnits="userSpaceOnUse">
<stop stop-color="#D76200"/>
<stop offset="1" stop-color="#8340C0"/>
</linearGradient>
<linearGradient id="paint7_linear_1_4096" x1="37.421" y1="37.707" x2="51.4488" y2="23.6792" gradientUnits="userSpaceOnUse">
<stop stop-color="#C0408D"/>
<stop offset="1" stop-color="#5D00D7" stop-opacity="0"/>
</linearGradient>
<linearGradient id="paint8_linear_1_4096" x1="24.8273" y1="27.9998" x2="4.07392" y2="27.9998" gradientUnits="userSpaceOnUse">
<stop stop-color="#A200D5"/>
<stop offset="1" stop-color="#3FBE94"/>
</linearGradient>
<linearGradient id="paint9_linear_1_4096" x1="14.4747" y1="27.7971" x2="14.4747" y2="47.6353" gradientUnits="userSpaceOnUse">
<stop stop-color="#3F6EBE"/>
<stop offset="1" stop-color="#00D56B" stop-opacity="0"/>
</linearGradient>
<linearGradient id="paint10_linear_1_4096" x1="31.1728" y1="27.9998" x2="51.9261" y2="27.9998" gradientUnits="userSpaceOnUse">
<stop stop-color="#A200D5"/>
<stop offset="1" stop-color="#3FBE94"/>
</linearGradient>
<linearGradient id="paint11_linear_1_4096" x1="41.5253" y1="28.2027" x2="41.5253" y2="8.36445" gradientUnits="userSpaceOnUse">
<stop stop-color="#3F6EBE"/>
<stop offset="1" stop-color="#00D56B" stop-opacity="0"/>
</linearGradient>
<linearGradient id="paint12_linear_1_4096" x1="25.7564" y1="30.2441" x2="11.0816" y2="44.919" gradientUnits="userSpaceOnUse">
<stop stop-color="#D500A3"/>
<stop offset="1" stop-color="#3FA9BE"/>
</linearGradient>
<linearGradient id="paint13_linear_1_4096" x1="18.2929" y1="37.4212" x2="32.3207" y2="51.449" gradientUnits="userSpaceOnUse">
<stop stop-color="#3F44BE"/>
<stop offset="1" stop-color="#00D5D5" stop-opacity="0"/>
</linearGradient>
<linearGradient id="paint14_linear_1_4096" x1="30.2437" y1="25.7564" x2="44.9185" y2="11.0816" gradientUnits="userSpaceOnUse">
<stop stop-color="#D500A3"/>
<stop offset="1" stop-color="#3FA9BE"/>
</linearGradient>
<linearGradient id="paint15_linear_1_4096" x1="37.7075" y1="18.5792" x2="23.6797" y2="4.55141" gradientUnits="userSpaceOnUse">
<stop stop-color="#3F44BE"/>
<stop offset="1" stop-color="#00D5D5" stop-opacity="0"/>
</linearGradient>
</defs>
</svg>

<svg xmlns="http://www.w3.org/2000/svg" width="56" height="56" fill="none" viewBox="0 0 56 56"><path fill="url(#a)" d="M10.638 8.4a1.87 1.87 0 0 1 0-2.637l1.641-1.641 14.353 14.353a1.87 1.87 0 0 0 2.638 0L43.672 4.073l1.69 1.69a1.87 1.87 0 0 1 0 2.637L29.421 24.342a2.48 2.48 0 0 1-2.638.193q-.052-.044-.101-.091z"/><path fill="url(#b)" d="M26.783 24.535q-.053-.044-.102-.091L10.638 8.4a1.87 1.87 0 0 1 0-2.637l1.641-1.641 14.353 14.353c.4.4.942.579 1.47.537v5.809a2.47 2.47 0 0 1-1.32-.286" opacity=".6"/><path fill="url(#c)" d="M45.362 47.598a1.87 1.87 0 0 1 0 2.637l-1.641 1.642-14.353-14.354a1.87 1.87 0 0 0-2.638 0L12.328 51.926l-1.69-1.69a1.87 1.87 0 0 1 0-2.638L26.58 31.656a2.48 2.48 0 0 1 2.638-.193q.051.044.1.091z"/><path fill="url(#d)" d="M29.218 31.463q.052.044.1.092l16.045 16.043a1.87 1.87 0 0 1 0 2.638l-1.642 1.64-14.353-14.352c-.4-.401-.942-.58-1.47-.537v-5.809c.453-.028.91.067 1.32.285" opacity=".6"/><path fill="url(#e)" d="M1.865 26.419A1.87 1.87 0 0 1 0 24.554v-2.321h20.299a1.87 1.87 0 0 0 1.864-1.865V0h2.391a1.87 1.87 0 0 1 1.865 1.865V24.41a2.48 2.48 0 0 1-1.729 2.002q-.067.006-.136.007z"/><path fill="url(#f)" d="M24.69 26.412q-.067.006-.136.007H1.865A1.87 1.87 0 0 1 0 24.554v-2.321H20.3c.566 0 1.075-.257 1.418-.66l4.108 4.108c-.3.339-.691.596-1.135.73" opacity=".6"/><path fill="url(#g)" d="M54.135 29.581A1.87 1.87 0 0 1 56 31.446v2.321H35.702a1.87 1.87 0 0 0-1.865 1.865V56h-2.39a1.87 1.87 0 0 1-1.866-1.865V31.59a2.48 2.48 0 0 1 1.73-2.002q.067-.006.135-.007z"/><path fill="url(#h)" d="M31.31 29.588q.068-.006.137-.007h22.688A1.87 1.87 0 0 1 56 31.446v2.321H35.702c-.567 0-1.076.257-1.419.66l-4.107-4.108c.3-.34.69-.596 1.135-.73" opacity=".6"/><path fill="url(#i)" d="M8.402 45.362a1.87 1.87 0 0 1-2.638 0l-1.641-1.641 14.353-14.353a1.87 1.87 0 0 0 0-2.638L4.074 12.328l1.69-1.69a1.87 1.87 0 0 1 2.637 0l15.942 15.941c.572.772.637 1.807.193 2.638q-.044.053-.091.102z"/><path fill="url(#j)" d="M24.536 29.217q-.044.053-.091.101L8.4 45.362a1.87 1.87 0 0 1-2.637 0l-1.641-1.641 14.353-14.353c.4-.401.579-.943.537-1.47h5.809c.027.452-.067.91-.286 1.32" opacity=".6"/><path fill="url(#k)" d="M47.598 10.638a1.87 1.87 0 0 1 2.638 0l1.641 1.641-14.353 14.353a1.87 1.87 0 0 0 0 2.637l14.402 14.403-1.69 1.69a1.87 1.87 0 0 1-2.638 0L31.657 29.42a2.48 2.48 0 0 1-.193-2.638q.044-.052.091-.1z"/><path fill="url(#l)" d="M31.464 26.783q.044-.053.091-.102l16.044-16.043a1.87 1.87 0 0 1 2.637 0l1.641 1.641-14.353 14.353c-.4.4-.579.943-.537 1.47h-5.809c-.027-.452.067-.91.286-1.32" opacity=".6"/><path fill="url(#m)" d="M26.419 54.136A1.87 1.87 0 0 1 24.554 56h-2.321V35.702a1.87 1.87 0 0 0-1.865-1.865H0v-2.39a1.87 1.87 0 0 1 1.865-1.865H24.41c.95.141 1.728.827 2.002 1.729q.006.067.007.136z"/><path fill="url(#n)" d="M26.412 31.31q.006.068.007.137v22.689A1.87 1.87 0 0 1 24.554 56h-2.321V35.703c0-.566-.257-1.075-.66-1.418l4.108-4.108c.34.3.596.691.73 1.135" opacity=".6"/><path fill="url(#o)" d="M29.581 1.865A1.87 1.87 0 0 1 31.446 0h2.321v20.299a1.87 1.87 0 0 0 1.865 1.864H56v2.391a1.87 1.87 0 0 1-1.865 1.865H31.59a2.48 2.48 0 0 1-2.002-1.729q-.006-.067-.007-.136z"/><path fill="url(#p)" d="M29.589 24.69q-.007-.067-.008-.136V1.864A1.87 1.87 0 0 1 31.446 0h2.322v20.299c0 .566.257 1.075.659 1.418l-4.108 4.108c-.339-.3-.596-.692-.73-1.135" opacity=".6"/><defs><linearGradient id="a" x1="28" x2="28" y1="24.826" y2="4.073" gradientUnits="userSpaceOnUse"><stop stop-color="#d5003b"/><stop offset="1" stop-color="#3f67be"/></linearGradient><linearGradient id="b" x1="28.203" x2="8.364" y1="14.474" y2="14.474" gradientUnits="userSpaceOnUse"><stop stop-color="#5e3fbe"/><stop offset="1" stop-color="#0067d5" stop-opacity="0"/></linearGradient><linearGradient id="c" x1="28" x2="28" y1="31.172" y2="51.926" gradientUnits="userSpaceOnUse"><stop stop-color="#d5003b"/><stop offset="1" stop-color="#3f67be"/></linearGradient><linearGradient id="d" x1="27.798" x2="47.636" y1="41.525" y2="41.525" gradientUnits="userSpaceOnUse"><stop stop-color="#5e3fbe"/><stop offset="1" stop-color="#0067d5" stop-opacity="0"/></linearGradient><linearGradient id="e" x1="25.756" x2="11.082" y1="25.756" y2="11.082" gradientUnits="userSpaceOnUse"><stop stop-color="#d76200"/><stop offset="1" stop-color="#8340c0"/></linearGradient><linearGradient id="f" x1="18.579" x2="4.552" y1="18.293" y2="32.32" gradientUnits="userSpaceOnUse"><stop stop-color="#c0408d"/><stop offset="1" stop-color="#5d00d7" stop-opacity="0"/></linearGradient><linearGradient id="g" x1="30.244" x2="44.919" y1="30.243" y2="44.918" gradientUnits="userSpaceOnUse"><stop stop-color="#d76200"/><stop offset="1" stop-color="#8340c0"/></linearGradient><linearGradient id="h" x1="37.421" x2="51.449" y1="37.707" y2="23.679" gradientUnits="userSpaceOnUse"><stop stop-color="#c0408d"/><stop offset="1" stop-color="#5d00d7" stop-opacity="0"/></linearGradient><linearGradient id="i" x1="24.827" x2="4.074" y1="28" y2="28" gradientUnits="userSpaceOnUse"><stop stop-color="#a200d5"/><stop offset="1" stop-color="#3fbe94"/></linearGradient><linearGradient id="j" x1="14.475" x2="14.475" y1="27.797" y2="47.635" gradientUnits="userSpaceOnUse"><stop stop-color="#3f6ebe"/><stop offset="1" stop-color="#00d56b" stop-opacity="0"/></linearGradient><linearGradient id="k" x1="31.173" x2="51.926" y1="28" y2="28" gradientUnits="userSpaceOnUse"><stop stop-color="#a200d5"/><stop offset="1" stop-color="#3fbe94"/></linearGradient><linearGradient id="l" x1="41.525" x2="41.525" y1="28.203" y2="8.364" gradientUnits="userSpaceOnUse"><stop stop-color="#3f6ebe"/><stop offset="1" stop-color="#00d56b" stop-opacity="0"/></linearGradient><linearGradient id="m" x1="25.756" x2="11.082" y1="30.244" y2="44.919" gradientUnits="userSpaceOnUse"><stop stop-color="#d500a3"/><stop offset="1" stop-color="#3fa9be"/></linearGradient><linearGradient id="n" x1="18.293" x2="32.321" y1="37.421" y2="51.449" gradientUnits="userSpaceOnUse"><stop stop-color="#3f44be"/><stop offset="1" stop-color="#00d5d5" stop-opacity="0"/></linearGradient><linearGradient id="o" x1="30.244" x2="44.919" y1="25.756" y2="11.082" gradientUnits="userSpaceOnUse"><stop stop-color="#d500a3"/><stop offset="1" stop-color="#3fa9be"/></linearGradient><linearGradient id="p" x1="37.708" x2="23.68" y1="18.579" y2="4.551" gradientUnits="userSpaceOnUse"><stop stop-color="#3f44be"/><stop offset="1" stop-color="#00d5d5" stop-opacity="0"/></linearGradient></defs></svg>
